X:1
T:Harbour Le Cou
M:3/4
L:1/4
K:G
B,/2-C/2| D3/2 E/2 F| G B, C| D E F| G2 B| c d B| c- d d| G F E| D2 B|\
 c d B| c d d| G F E| c2 d3/4- c/4| B A G| A- B, C| D G3/2 F/2| G2||\
